symbols/web/vaping_rooms/materialsymbolsoutlined/vaping_rooms_wght200grad200_40px.svg

<svg xmlns="http://www.w3.org/2000/svg" height="40" width="40"><path d="M12.042 31.917q-1.167-.334-2.417-.542-1.25-.208-2.75-.208H4.417v-2.834h2.458q1.292 0 2.583-.187 1.292-.188 2.584-.521Zm1.541-.042v-4.208H36.25v4.208Zm3.292-1.292q.333 0 .583-.229.25-.229.25-.604 0-.333-.25-.583-.25-.25-.583-.25-.375 0-.604.25-.229.25-.229.583 0 .375.229.604.229.229.604.229Zm13.5-5.291v-2.25q0-1.667-1.021-2.604Q28.333 19.5 27 19.5h-2.75q-2.208 0-3.708-1.562-1.5-1.563-1.5-3.813 0-2.167 1.5-3.687 1.5-1.521 3.708-1.521V11q-1.333 0-2.229.875-.896.875-.896 2.208 0 1.334.896 2.334t2.229 1H27q2.208 0 3.833 1.541 1.625 1.542 1.625 3.709v2.625Zm3.792 0v-3.959q0-2.833-1.979-4.791-1.98-1.959-4.896-1.959V12.5q1.291 0 2.187-.938.896-.937.896-2.229 0-1.375-.917-2.312-.916-.938-2.166-.938V4q2.166 0 3.646 1.562 1.479 1.563 1.479 3.771 0 1.25-.459 2.209-.458.958-1.25 1.708 2.334.917 3.938 3.062 1.604 2.146 1.604 5.021v3.959Z"/></svg>

<svg xmlns="http://www.w3.org/2000/svg" height="40" width="40"><path d="M12.042 31.917Q10.875 31.583 9.625 31.375Q8.375 31.167 6.875 31.167H4.417V28.333H6.875Q8.167 28.333 9.458 28.146Q10.75 27.958 12.042 27.625ZM13.583 31.875V27.667H36.25V31.875ZM16.875 30.583Q17.208 30.583 17.458 30.354Q17.708 30.125 17.708 29.75Q17.708 29.417 17.458 29.167Q17.208 28.917 16.875 28.917Q16.5 28.917 16.271 29.167Q16.042 29.417 16.042 29.75Q16.042 30.125 16.271 30.354Q16.5 30.583 16.875 30.583ZM30.375 25.292V23.042Q30.375 21.375 29.354 20.438Q28.333 19.5 27 19.5H24.25Q22.042 19.5 20.542 17.938Q19.042 16.375 19.042 14.125Q19.042 11.958 20.542 10.438Q22.042 8.917 24.25 8.917V11Q22.917 11 22.021 11.875Q21.125 12.75 21.125 14.083Q21.125 15.417 22.021 16.417Q22.917 17.417 24.25 17.417H27Q29.208 17.417 30.833 18.958Q32.458 20.5 32.458 22.667V25.292ZM34.167 25.292V21.333Q34.167 18.5 32.188 16.542Q30.208 14.583 27.292 14.583V12.5Q28.583 12.5 29.479 11.562Q30.375 10.625 30.375 9.333Q30.375 7.958 29.458 7.021Q28.542 6.083 27.292 6.083V4Q29.458 4 30.938 5.562Q32.417 7.125 32.417 9.333Q32.417 10.583 31.958 11.542Q31.5 12.5 30.708 13.25Q33.042 14.167 34.646 16.312Q36.25 18.458 36.25 21.333V25.292Z"/></svg>
